X: 130192
T: Miss Lyons' Fancy
T: Early Breakfast
S: Mick Moloney/"Crossroads Dance"
Z: B.Black
R: reel
M: 4/4
L: 1/8
K: D
D2 FA D2 FA|defd eB (3BBB|d2 cA (3Bcd AF|GBAG (3FED EC|
D2 FA D2 FA|defd eB (3BBB|d2 cA (3Bcd AF|GBAG FD D2 ||
a2 fd faaf|gfed efge|a2 fd faaf|gbag fddf|
a2 fd faaf|gfed efge|fdec dBAF|GBAG FD D2 ||
